X: 32757
T: Polska Från Hälleforsnäs
R: waltz
M: 3/4
K: Aminor
|g>f ed ec|cB/c/ dc BA/G/|E>A AB cd|ef/e/ de/f/ e2|
g>f ed ec|cB/c/ dc BA/G/|E>A AB cB|GA A4:|
E2 A2 B2|cB/c/ dc BA/G/|E>A AB cd|ef/e/ de/f/ e2|
E2 A2 B2|cB/c/ dc BA/G/|E>A AB cB|GA A4:|

